X:1
T:Title
%%score { 1 | 2 }
L:1/8
M:4/4
K:G
V:1 treble nm="Grand Piano"
V:2 treble 
V:1
 z4 z2[Q:1/4=100] B>c | d>d d>e d>c B>A | G>A [EG]>[CE] [B,D]2 [B,D]>[B,D] | G>G G>A B>B A>G | %4
 [FA]6 B>c | d>e d>B d2 B>A |[M:9/8] G>A[CEG]- [CEG]/[G,CE]/ [CEG]2- [CEG][G,DF]>[G,CE] | %7
[M:4/4] [G,B,D]>[G,B,D] [B,DG]>[CDA] [DGB]>[B,G] [DFB]>[CFA] | [B,DG]6 z2 | d3 e d3 B | %10
 [B,DG]>[B,DG] [CEG]>[G,CE] [G,B,D]4 | d3 e d3 B | A>A [^CEA]>[CGB] [DFA]3 [=CD] | %13
 [B,DG]>[B,DG] [DG]>[DFA] B3 G |[M:5/4] B>B B>c d3 [Ge]3 | %15
[M:4/4] [Gd]>[Gd] [Gd]>[Gd] [DGB]>[B,G] [DGB]>[CFA] |[M:3/4] [B,DG]6 |] %17
V:2
 z4 z2 [G,D]>[G,A,D] | [G,B,G]>[G,B,G] [G,B,G]>[G,CG] [G,B,G]>[G,EG] [G,DG]>[K:bass][G,CD] | %2
 [G,B,D]>[G,B,D] [C,C]>[C,G,] [G,,G,]2 [G,,G,]>[G,,G,] | %3
 [G,B,D]>[G,B,D] [G,B,D]>[G,CD] [G,DG]>[G,DG][K:bass] [G,CD]>[G,B,D] | %4
 [D,D]6[K:treble] [G,DG]>[G,CG] | [G,B,G]>[G,CG] [G,B,G]>[G,DG] [G,B,G]2 [G,DG]>[K:bass][G,CD] | %6
[M:9/8] [G,B,D]>[G,B,D]C,- C,/C,/ C,2- C,C,>C, |[M:4/4] D,>D, D,>D, D,>D, D,>D, | G,,6 z2 | %9
 [G,B,G]3 [G,CG] [G,B,G]3 [G,DG] | G,,>G,, C,>C, G,,4 | [G,B,G]3 [G,CG] [G,B,G]3 [G,DG] | %12
 [A,DF]>[A,DF][K:bass] A,,>A,, D,3 D, | G,,>G,, B,,>D,[K:treble] [G,DG]3 [G,B,D] | %14
[M:5/4] [G,DG]>[G,DG] [G,DG]>[A,DG] [B,DG]3[K:bass] [C,C]3 | %15
[M:4/4] [D,B,]>[D,B,] [D,B,]>[D,B,] D,>D, D,>D, |[M:3/4] G,,6 |] %17

